images/agrobank.svg

<svg width="136" height="68" viewBox="0 0 136 68" fill="none" xmlns="http://www.w3.org/2000/svg">
<mask id="mask0_5_739" style="mask-type:luminance" maskUnits="userSpaceOnUse" x="2" y="21" width="131" height="25">
<path d="M133 21H2V46H133V21Z" fill="white"/>
</mask>
<g mask="url(#mask0_5_739)">
<path d="M51.2335 39.4507C50.9271 38.754 50.6366 38.0506 50.3441 37.3481C48.9334 33.98 47.525 30.6094 46.119 27.2362C46.0275 27.016 45.915 26.9536 45.6842 26.9546C43.5539 26.963 41.4239 26.963 39.2943 26.9546C39.0376 26.9546 38.9093 26.9916 38.9252 27.2869C38.9511 27.7692 38.9441 28.2534 38.9252 28.7357C38.9173 28.9764 38.9998 29.0426 39.2376 29.0378C39.8862 29.0232 40.5359 29.0436 41.1835 29.028C41.5039 29.0202 41.5277 29.1108 41.4123 29.3817C40.6354 31.2125 39.8713 33.0492 39.1043 34.8839C38.4397 36.475 37.7772 38.0671 37.0837 39.7294C38.1452 39.7294 39.1451 39.7226 40.1459 39.7294C40.3588 39.7294 40.3966 39.6115 40.4523 39.4634C40.709 38.7813 40.9816 38.0993 41.2283 37.4114C41.3109 37.1844 41.4133 37.0811 41.677 37.083C43.3284 37.0947 44.9792 37.0947 46.6293 37.083C46.8651 37.083 46.9765 37.1512 47.0561 37.3753C47.2969 38.0525 47.5645 38.7209 47.8222 39.3932C47.8908 39.5725 47.9415 39.7381 48.2151 39.7323C49.1602 39.7157 50.1054 39.7196 51.0505 39.7323C51.3121 39.7372 51.327 39.6641 51.2335 39.4507ZM45.6743 34.7816C44.6476 34.7621 43.6199 34.7738 42.5902 34.7767C42.3913 34.7767 42.251 34.7767 42.3525 34.5127C42.9156 33.0609 43.4687 31.6052 44.0278 30.1534C44.0635 30.0853 44.1048 30.0202 44.1512 29.9585C44.4357 30.6747 44.7053 31.3509 44.9719 32.0281C45.2833 32.8251 45.5857 33.625 45.9031 34.4201C46.0016 34.6657 46.0205 34.7894 45.6743 34.7816Z" fill="black"/>
<path d="M62.3637 30.6556C62.3637 30.413 62.2742 30.3516 62.0424 30.3546C61.2963 30.3663 60.5501 30.3682 59.801 30.3546C59.5523 30.3546 59.4826 30.4432 59.4956 30.6703C59.5105 30.9392 59.4956 31.211 59.4956 31.5998C57.8501 29.5001 54.3313 29.7826 52.8977 31.8921C52.08 33.0906 51.9099 34.4254 52.1078 35.8168C52.5058 38.6317 55.2187 40.2628 57.9108 39.3118C58.4729 39.117 58.9225 38.7525 59.3901 38.24C59.3901 38.585 59.3901 38.8149 59.3901 39.0439C59.3762 40.2131 58.8101 40.9293 57.6581 41.2342C56.5697 41.5217 55.5082 41.3589 54.4587 41.0394C53.9364 40.8796 53.4638 40.6116 52.9216 40.3047C52.9216 40.9867 52.9445 41.585 52.9137 42.1862C52.8967 42.5175 53.0201 42.686 53.3176 42.8137C55.1721 43.6392 57.2675 43.7858 59.223 43.2268C61.157 42.6919 62.307 41.2303 62.3379 39.2699C62.3816 36.3946 62.3538 33.5261 62.3637 30.6556ZM59.0419 36.8204C58.4854 37.2058 57.8137 37.3988 57.1328 37.369C55.8146 37.3066 54.969 36.2611 55.0168 34.7781C55.0576 33.5553 55.6137 32.7096 56.6205 32.4709C57.5775 32.2419 58.456 32.4631 59.2339 33.0652C59.2927 33.1113 59.3387 33.1712 59.3674 33.2394C59.3961 33.3075 59.4066 33.3817 59.3981 33.455C59.3921 33.9227 59.3981 34.3913 59.3981 34.859C59.3981 35.2868 59.3732 35.7155 59.407 36.1403C59.4289 36.4628 59.2926 36.6538 59.0419 36.8204Z" fill="black"/>
<path d="M95.6365 32.3124C94.7063 30.4806 92.4798 29.6865 90.516 30.3754C89.9784 30.5791 89.5001 30.909 89.1232 31.3361C88.9909 31.1724 89.0416 31.0302 89.0406 30.8986C89.0406 29.5599 89.0336 28.2211 89.0406 26.8823C89.0406 26.6485 89.0058 26.5345 88.7233 26.5413C87.9343 26.5598 87.1444 26.5559 86.3545 26.5413C86.1098 26.5413 86.0471 26.6193 86.0481 26.8492C86.0541 31.0467 86.0541 35.2433 86.0481 39.4388C86.0481 39.6337 86.076 39.7389 86.3177 39.7311C87.093 39.7162 87.8683 39.7162 88.6437 39.7311C88.8804 39.7311 88.9282 39.6425 88.9173 39.4388C88.9033 39.1709 88.9173 38.901 88.9173 38.5395C89.1451 38.7665 89.2883 38.9293 89.4515 39.0686C91.1159 40.5126 94.0626 40.1404 95.341 38.2482C96.6194 36.356 96.6542 34.3196 95.6365 32.3124ZM92.4918 37.1608C91.6033 37.9403 90.0046 37.7454 89.1093 36.9425C88.9988 36.8451 89.0317 36.7136 89.0307 36.5937C89.0307 36.0685 89.0307 35.5434 89.0307 35.0201C89.0307 34.5641 89.0585 34.1062 89.0217 33.656C88.9939 33.3043 89.1401 33.1007 89.4197 32.9107C90.4354 32.214 91.8779 32.2812 92.644 33.0763C93.6169 34.0857 93.5403 36.2332 92.4918 37.1608Z" fill="black"/>
<path d="M14.5541 45.8242C14.5471 45.872 14.5401 45.9217 14.5322 45.9665C14.3929 45.9752 14.2526 45.9908 14.1123 45.9908C10.2324 45.9908 6.3525 45.9908 2.47954 45.9996C2.13333 45.9996 1.99803 45.9548 2.00002 45.5602C2.01892 41.7504 2.01096 37.9397 2.01196 34.129C2.01196 34.0053 2.02091 33.8806 2.02589 33.7568L2.24575 33.7627C2.32036 33.825 2.39796 33.8845 2.4676 33.9517C6.43175 37.8368 10.3956 41.7225 14.3591 45.6089C14.4287 45.6771 14.4894 45.7482 14.5541 45.8242Z" fill="#00CD69"/>
<path d="M14.5512 21.1949C14.4766 21.2777 14.4069 21.3634 14.3273 21.4414C10.3751 25.3141 6.42224 29.1878 2.46871 33.0625C2.39907 33.1288 2.32147 33.1892 2.24685 33.2515H2.026L2.01107 22.5794C2.01008 22.1692 2.02898 21.7512 2.00013 21.3381C1.98819 21.0565 2.09962 21 2.36226 21C4.26441 21.0097 6.16656 21 8.06872 21.0058C10.2236 21.0058 12.3791 21.0104 14.5352 21.0195C14.5402 21.076 14.5452 21.1335 14.5512 21.1949Z" fill="#00CD69"/>
<path d="M27.1908 45.9986C23.159 45.9888 19.1265 45.9856 15.0934 45.9888C15.0514 45.9856 15.0097 45.9784 14.9691 45.9674C14.9631 45.9226 14.9581 45.8778 14.9521 45.8329C15.0158 45.7608 15.0775 45.6848 15.1451 45.6166L27.0406 33.9585C27.1202 33.8815 27.2077 33.8114 27.2913 33.7393L27.4753 33.8367C27.48 35.8796 27.4846 37.9225 27.4893 39.9654C27.4893 41.8566 27.4893 43.7478 27.4893 45.639C27.4932 45.8554 27.4922 45.9996 27.1908 45.9986Z" fill="#00CD69"/>
<path d="M27.4961 21.299C27.4815 25.2841 27.4742 29.2689 27.4742 33.2533L27.2912 33.2679C27.2076 33.1958 27.1191 33.1266 27.0405 33.0497C23.0863 29.1737 19.1331 25.2977 15.1809 21.4217C15.1013 21.3447 15.0316 21.259 14.958 21.1762C14.958 21.1245 14.963 21.0719 14.967 21.0193C17.8262 21.0141 20.685 21.0092 23.5436 21.0047C24.7374 21.0047 25.9372 21.0047 27.134 21.0047C27.3558 20.9998 27.4971 21.0086 27.4961 21.299Z" fill="#00CD69"/>
<path d="M132.895 39.656C132.696 39.8908 132.179 39.7213 131.8 39.7281C131.166 39.7398 130.53 39.7203 129.896 39.7369C129.793 39.7464 129.69 39.7263 129.599 39.6788C129.508 39.6313 129.433 39.5587 129.384 39.4699C128.677 38.4059 127.94 37.3614 127.25 36.2886C127.025 35.9378 126.776 35.816 126.363 35.8336C125.608 35.8677 125.607 35.8433 125.607 36.5741C125.607 37.5134 125.597 38.4527 125.614 39.3919C125.614 39.6628 125.541 39.7437 125.264 39.7369C124.502 39.72 123.739 39.72 122.976 39.7369C122.716 39.7369 122.611 39.693 122.612 39.4036C122.622 35.2327 122.622 31.0622 122.612 26.8919C122.612 26.623 122.682 26.5344 122.965 26.5412C123.697 26.5597 124.431 26.5655 125.164 26.5412C125.51 26.5285 125.613 26.6191 125.611 26.9689C125.594 29.095 125.611 31.2229 125.593 33.348C125.593 33.7027 125.706 33.7475 126.038 33.7816C126.692 33.8488 127.085 33.6277 127.425 33.0693C127.937 32.2295 128.565 31.4597 129.124 30.6481C129.266 30.4425 129.409 30.3499 129.667 30.3558C130.514 30.3733 131.359 30.3616 132.303 30.3616C131.57 31.3847 130.885 32.3405 130.201 33.2954C130.087 33.4542 129.971 33.6101 129.859 33.7689C129.304 34.5562 129.303 34.5572 129.869 35.362C130.333 36.0197 130.82 36.6628 131.262 37.336C131.478 37.6654 131.721 37.7862 132.121 37.7706C132.956 37.7375 132.959 37.7599 132.955 38.5842C132.96 38.9505 133.085 39.4368 132.895 39.656Z" fill="black"/>
<path d="M108.076 37.9467C107.336 38.0062 107.145 37.8132 107.142 37.0854C107.142 35.9162 107.161 34.7382 107.128 33.566C107.094 32.4085 106.584 31.4478 105.542 30.9012C103.259 29.7027 100.956 29.9668 98.6778 30.9869C98.6207 31.0113 98.5728 31.0526 98.5409 31.1051C98.5089 31.1575 98.4946 31.2184 98.4997 31.2792C98.5057 31.9418 98.4997 32.6034 98.4997 33.3098C98.5572 33.2974 98.6137 33.2811 98.6689 33.2611C98.7813 33.2026 98.8907 33.1402 99.0012 33.0798C100.195 32.429 101.47 32.163 102.828 32.389C103.668 32.5283 104.169 33.0808 104.245 33.8593C104.276 34.1701 104.251 34.289 103.857 34.213C102.365 33.9207 100.882 33.9353 99.4598 34.5414C97.5129 35.3715 97.0811 37.5619 98.5644 38.9825C99.9333 40.2871 102.949 40.255 104.108 38.964C104.284 38.7691 104.375 38.736 104.517 38.999C104.674 39.2804 104.921 39.5043 105.219 39.6372C106.183 40.0971 107.156 40.0124 108.132 39.6752C108.3 39.6168 108.319 39.496 108.317 39.3479C108.317 38.9581 108.317 38.5752 108.317 38.1874C108.33 38.0179 108.32 37.9282 108.076 37.9467ZM103.726 37.5414C102.993 38.0013 102.211 38.1065 101.391 37.821C100.96 37.67 100.686 37.3631 100.686 36.8915C100.686 36.4433 100.935 36.1354 101.347 35.9707C102.265 35.6044 103.199 35.7096 104.119 35.959C104.438 36.0458 104.176 36.3751 104.259 36.567C104.388 37.0601 104.084 37.3163 103.726 37.5414Z" fill="black"/>
<path d="M120.188 39.447C120.188 39.6565 120.132 39.7393 119.903 39.7393C119.099 39.7286 118.295 39.7228 117.491 39.7393C117.177 39.7452 117.202 39.5727 117.202 39.3701C117.202 37.7536 117.196 36.1381 117.202 34.5226C117.202 33.749 117.096 33.0143 116.267 32.6987C115.36 32.3537 114.476 32.4668 113.662 33.0368C113.463 33.1741 113.463 33.3466 113.463 33.5424C113.463 35.4619 113.456 37.3824 113.473 39.3019C113.473 39.639 113.395 39.7549 113.035 39.7403C112.317 39.713 111.596 39.714 110.878 39.7403C110.548 39.753 110.486 39.6429 110.487 39.3457C110.5 37.1495 110.487 34.9543 110.505 32.7581C110.505 32.3732 110.388 32.2894 110.032 32.3148C109.624 32.344 109.214 32.3148 108.805 32.3245C108.597 32.3303 108.493 32.2846 108.501 32.0527C108.516 31.584 108.513 31.1134 108.501 30.6447C108.501 30.4343 108.563 30.3524 108.789 30.3524C110.088 30.3602 111.386 30.3602 112.683 30.3524C112.904 30.3524 112.969 30.4382 113.004 30.632C113.064 30.9701 113.155 31.3034 113.245 31.6892C114.567 30.2394 116.144 29.8379 117.958 30.3592C119.271 30.7373 120.125 31.8081 120.147 33.1488C120.203 35.2485 120.179 37.3493 120.188 39.447Z" fill="black"/>
<path d="M83.9013 32.5765C82.8706 30.8227 81.1783 30.1933 79.4145 30.1465C78.6753 30.1572 78.157 30.1972 77.6486 30.3267C75.8519 30.7886 74.5645 31.8233 74.0671 33.6045C73.5538 35.4431 73.8572 37.1667 75.3057 38.5308C76.6756 39.8208 78.3898 40.1463 80.2163 39.8696C84.4733 39.2206 85.4015 35.1284 83.9013 32.5765ZM81.5554 35.0874C81.5275 36.0462 81.2301 36.8734 80.3277 37.384C79.2125 38.0154 77.7083 37.5642 77.1542 36.4272C76.6806 35.4528 76.7045 34.4785 77.2308 33.5285C77.7043 32.673 78.7489 32.2618 79.7766 32.4966C80.7356 32.7129 81.4599 33.5986 81.5544 34.6753C81.5653 34.8117 81.5554 34.9501 81.5554 35.0874Z" fill="black"/>
<path d="M72.9332 30.7437C72.9011 31.3226 72.8987 31.9028 72.9263 32.4819C72.9342 32.7742 72.9263 32.9184 72.5283 32.8492C71.6131 32.6904 70.7018 32.743 69.8512 33.1747C69.2612 33.4728 68.92 33.8733 68.9449 34.6021C68.9976 36.1874 68.9538 37.7766 68.9668 39.3628C68.9668 39.6454 68.9001 39.7525 68.5937 39.7409C67.8615 39.7194 67.1273 39.7184 66.3951 39.7409C66.0668 39.7516 65.9703 39.6678 65.9732 39.3345C65.9892 37.1403 65.9732 34.95 65.9902 32.7518C65.9902 32.4137 65.9165 32.289 65.5554 32.3153C65.1356 32.3465 64.7108 32.3153 64.288 32.326C64.0691 32.3338 63.9895 32.2646 63.9895 32.0454C64.0024 31.5767 64.0014 31.1071 63.9895 30.6384C63.9895 30.4231 64.0621 30.3461 64.288 30.352C65.5839 30.3604 66.8806 30.3604 68.1778 30.352C68.4057 30.352 68.4673 30.4494 68.5042 30.6336C68.5907 31.0525 68.6902 31.4686 68.7738 31.8876C68.7956 31.9996 68.8126 32.1029 68.917 32.1691C69.5826 30.8197 70.5088 30.1016 72.3851 30.1756C72.7651 30.1922 72.9691 30.3081 72.9332 30.7437Z" fill="black"/>
<path d="M14.9669 21.02C14.9669 21.0726 14.961 21.1252 14.958 21.1769C14.8167 21.0327 14.6824 21.0707 14.5511 21.1954C14.5451 21.1389 14.5401 21.0814 14.5342 21.0249L14.9669 21.02Z" fill="black"/>
<path d="M14.9689 45.9684H14.5352C14.5431 45.9217 14.5501 45.871 14.557 45.8262C14.6874 45.9577 14.8187 45.9879 14.955 45.8349C14.958 45.8788 14.9629 45.9236 14.9689 45.9684Z" fill="black"/>
<path d="M2.24694 33.2515C2.22207 33.2992 2.1962 33.3489 2.16934 33.3947C2.00917 33.459 1.99027 33.3849 2.02608 33.2554L2.24694 33.2515Z" fill="black"/>
<path d="M2.24589 33.7637L2.02603 33.7579C2.00513 33.677 1.99618 33.601 2.09765 33.563L2.24589 33.7637Z" fill="black"/>
<path d="M27.4753 33.8383L27.2913 33.7408L27.4047 33.5723C27.534 33.6346 27.4922 33.7399 27.4753 33.8383Z" fill="black"/>
<path d="M27.4047 33.4381L27.2913 33.2685L27.4743 33.2539C27.4992 33.3328 27.5101 33.4069 27.4047 33.4381Z" fill="black"/>
</g>
</svg>

<svg xmlns="http://www.w3.org/2000/svg" width="136" height="68" fill="none"><mask id="a" width="131" height="25" x="2" y="21" maskUnits="userSpaceOnUse" style="mask-type:luminance"><path fill="#fff" d="M133 21H2v25h131V21Z"/></mask><g mask="url(#a)"><path fill="#000" d="M51.233 39.45c-.306-.696-.596-1.4-.889-2.102-1.41-3.368-2.819-6.739-4.225-10.112-.091-.22-.204-.282-.435-.281-2.13.008-4.26.008-6.39 0-.256 0-.385.037-.369.332.026.482.02.966 0 1.449-.008.24.075.307.313.302.648-.015 1.298.006 1.946-.01.32-.008.344.083.228.354-.777 1.83-1.54 3.667-2.308 5.502l-2.02 4.845c1.061 0 2.061-.006 3.062 0 .213 0 .25-.117.306-.266.257-.682.53-1.364.776-2.052.083-.227.185-.33.449-.328 1.651.012 3.302.012 4.952 0 .236 0 .348.068.427.292.24.678.509 1.346.766 2.018.069.18.12.345.393.34.945-.017 1.89-.013 2.835 0 .262.004.277-.069.184-.282Zm-5.559-4.668c-1.026-.02-2.054-.008-3.084-.005-.199 0-.339 0-.238-.264.564-1.452 1.117-2.908 1.676-4.36.035-.068.077-.133.123-.194.285.716.554 1.392.82 2.07.312.796.615 1.596.932 2.391.099.246.117.37-.229.362ZM62.364 30.656c0-.243-.09-.304-.322-.301-.746.011-1.492.013-2.241 0-.249 0-.318.088-.305.315.014.27 0 .541 0 .93-1.646-2.1-5.165-1.817-6.598.292-.818 1.199-.988 2.533-.79 3.925.398 2.815 3.11 4.446 5.803 3.495.562-.195 1.011-.56 1.48-1.072v.804c-.015 1.17-.58 1.885-1.733 2.19-1.088.288-2.15.125-3.2-.195-.522-.16-.994-.427-1.536-.734 0 .682.023 1.28-.008 1.881-.017.331.106.5.404.628a8.675 8.675 0 0 0 5.905.413c1.934-.535 3.084-1.997 3.115-3.957.044-2.875.016-5.744.026-8.614Zm-3.322 6.164a3.116 3.116 0 0 1-1.91.549c-1.317-.062-2.163-1.108-2.115-2.59.04-1.224.597-2.07 1.603-2.308.958-.23 1.836-.008 2.614.594a.437.437 0 0 1 .164.39c-.006.468 0 .936 0 1.404 0 .428-.025.856.009 1.281.022.323-.114.514-.365.68ZM95.636 32.312c-.93-1.831-3.156-2.625-5.12-1.937a3.52 3.52 0 0 0-1.393.961c-.132-.164-.081-.306-.082-.437 0-1.34-.007-2.678 0-4.017 0-.234-.035-.348-.318-.34-.789.018-1.579.014-2.368 0-.245 0-.308.077-.307.307.006 4.198.006 8.394 0 12.59 0 .195.028.3.27.292.775-.015 1.55-.015 2.326 0 .236 0 .284-.089.273-.292-.014-.268 0-.538 0-.9.228.227.371.39.534.53 1.665 1.444 4.612 1.071 5.89-.82 1.278-1.893 1.313-3.93.296-5.937Zm-3.144 4.849c-.889.78-2.487.584-3.383-.218-.11-.098-.077-.23-.078-.35V35.02c0-.456.027-.914-.01-1.364-.027-.352.12-.555.399-.745 1.015-.697 2.458-.63 3.224.165.973 1.01.896 3.157-.152 4.085Z"/><path fill="#00CD69" d="M14.554 45.824c-.007.048-.014.098-.022.143-.14.008-.28.024-.42.024-3.88 0-7.76 0-11.632.009-.347 0-.482-.045-.48-.44.019-3.81.011-7.62.012-11.431 0-.124.009-.248.014-.372l.22.006c.074.062.152.122.222.189 3.964 3.885 7.928 7.77 11.891 11.657.07.068.13.14.195.215ZM14.551 21.195c-.074.083-.144.168-.224.246L2.47 33.063c-.07.066-.148.126-.222.188h-.221L2.011 22.58c0-.41.018-.828-.01-1.24-.013-.282.099-.339.361-.339 1.902.01 3.805 0 5.707.006 2.155 0 4.31.004 6.466.014l.016.175ZM27.19 45.999c-4.031-.01-8.064-.013-12.097-.01a.67.67 0 0 1-.124-.022c-.006-.044-.01-.09-.017-.134.064-.072.126-.148.193-.216l11.896-11.658c.08-.078.167-.148.25-.22l.184.098.014 6.128v5.674c.004.216.003.36-.298.36ZM27.496 21.299c-.014 3.985-.022 7.97-.022 11.954l-.183.015c-.083-.072-.172-.141-.25-.218a65671.66 65671.66 0 0 1-11.86-11.628c-.08-.077-.15-.163-.223-.246 0-.051.005-.104.009-.157l8.577-.014h3.59c.222-.005.363.004.362.294Z"/><path fill="#000" d="M132.895 39.656c-.199.235-.716.065-1.095.072-.634.012-1.27-.008-1.904.009a.535.535 0 0 1-.512-.267c-.707-1.064-1.444-2.109-2.134-3.181-.225-.351-.474-.473-.887-.455-.755.034-.756.01-.756.74 0 .94-.01 1.879.007 2.818 0 .27-.073.352-.35.345a51.633 51.633 0 0 0-2.288 0c-.26 0-.365-.044-.364-.333.01-4.171.01-8.342 0-12.512 0-.269.07-.358.353-.35.732.018 1.466.023 2.199 0 .346-.014.449.077.447.427-.017 2.126 0 4.254-.018 6.379 0 .355.113.4.445.434.654.067 1.047-.154 1.387-.713.512-.84 1.14-1.61 1.699-2.42.142-.207.285-.3.543-.293.847.017 1.692.006 2.636.006l-2.102 2.933c-.114.16-.23.315-.342.474-.555.787-.556.788.01 1.593.464.658.951 1.3 1.393 1.974.216.33.459.45.859.435.835-.034.838-.011.834.813.005.366.13.853-.06 1.072ZM108.076 37.947c-.74.06-.931-.134-.934-.862 0-1.169.019-2.347-.014-3.519-.034-1.158-.544-2.118-1.586-2.665-2.283-1.198-4.586-.934-6.864.086a.296.296 0 0 0-.137.118.288.288 0 0 0-.041.174c.006.663 0 1.324 0 2.03.057-.012.114-.028.169-.048.112-.058.222-.12.332-.181 1.194-.651 2.469-.917 3.827-.691.84.14 1.341.692 1.417 1.47.031.311.006.43-.388.354-1.492-.292-2.975-.278-4.397.328-1.947.83-2.379 3.02-.896 4.442 1.37 1.304 4.385 1.272 5.544-.019.176-.195.267-.228.409.035.157.281.404.505.702.638.964.46 1.937.375 2.913.038.168-.058.187-.179.185-.327v-1.16c.013-.17.003-.26-.241-.241Zm-4.35-.406c-.733.46-1.515.566-2.335.28-.431-.151-.705-.458-.705-.93 0-.448.249-.756.661-.92.918-.367 1.852-.261 2.772-.012.319.087.057.416.14.608.129.493-.175.75-.533.974ZM120.188 39.447c0 .21-.056.292-.285.292a71.301 71.301 0 0 0-2.412 0c-.314.006-.289-.166-.289-.369 0-1.616-.006-3.232 0-4.847 0-.774-.106-1.509-.935-1.824-.907-.345-1.791-.232-2.605.338-.199.137-.199.31-.199.505 0 1.92-.007 3.84.01 5.76 0 .337-.078.453-.438.438a28.944 28.944 0 0 0-2.157 0c-.33.013-.392-.097-.391-.394.013-2.196 0-4.392.018-6.588 0-.385-.117-.469-.473-.443-.408.029-.818 0-1.227.01-.208.005-.312-.04-.304-.272.015-.469.012-.94 0-1.408 0-.21.062-.293.288-.293 1.299.008 2.597.008 3.894 0 .221 0 .286.086.321.28.06.338.151.671.241 1.057 1.322-1.45 2.899-1.851 4.713-1.33 1.313.378 2.167 1.45 2.189 2.79.056 2.1.032 4.2.041 6.298ZM83.901 32.577c-1.03-1.754-2.723-2.384-4.486-2.43-.74.01-1.258.05-1.766.18-1.797.462-3.085 1.496-3.582 3.277-.513 1.84-.21 3.563 1.239 4.927 1.37 1.29 3.084 1.615 4.91 1.339 4.257-.65 5.186-4.742 3.685-7.293Zm-2.346 2.51c-.028.96-.325 1.786-1.227 2.297-1.115.631-2.62.18-3.174-.957-.473-.974-.45-1.949.077-2.898.473-.856 1.518-1.267 2.546-1.032.959.216 1.683 1.102 1.777 2.178.011.137.001.275.001.412ZM72.933 30.744a16.88 16.88 0 0 0-.007 1.738c.008.292 0 .436-.398.367-.915-.159-1.826-.106-2.677.326-.59.298-.931.698-.906 1.427.053 1.585.009 3.175.022 4.76 0 .283-.067.39-.373.379a36.628 36.628 0 0 0-2.199 0c-.328.01-.425-.073-.422-.407.016-2.194 0-4.384.017-6.582 0-.338-.073-.463-.435-.437-.42.032-.844 0-1.267.011-.219.008-.298-.061-.298-.28.012-.47.011-.939 0-1.408 0-.215.072-.292.298-.286 1.296.008 2.593.008 3.89 0 .228 0 .29.097.326.282.087.418.186.835.27 1.254.022.112.039.215.143.281.666-1.35 1.592-2.067 3.468-1.993.38.016.584.132.548.568ZM14.967 21.02c0 .053-.006.105-.009.157-.141-.144-.276-.106-.407.018-.006-.056-.01-.114-.017-.17l.433-.005ZM14.969 45.968h-.434l.022-.142c.13.132.262.162.398.009.003.044.008.089.014.133ZM2.247 33.252c-.025.047-.05.097-.078.143-.16.064-.179-.01-.143-.14l.22-.004ZM2.246 33.764l-.22-.006c-.02-.081-.03-.157.072-.195l.148.2ZM27.475 33.838l-.184-.097.114-.169c.129.063.087.168.07.266ZM27.405 33.438l-.114-.17.183-.014c.025.079.036.153-.07.184Z"/></g></svg>
